images/icons/icon-behance.svg

<svg xmlns="http://www.w3.org/2000/svg" width="24" height="24" viewBox="0 0 24 24"><path d="M8.84 10.835h-1.965v-1.859h1.783c1.878 0 1.646 1.859.182 1.859zm5.789 1.058h2.624c-.115-1.687-2.36-1.81-2.624 0zm-5.9.396h-1.854v1.947h1.824c1.782-.001 1.673-1.947.03-1.947zm15.271-.289c0 6.627-5.373 12-12 12s-12-5.373-12-12 5.373-12 12-12 12 5.373 12 12zm-13.357-.733c1.668-.853 1.607-3.981-1.587-4.028h-4.056v8.73h3.771c3.958 0 3.891-3.967 1.872-4.702zm3.357-3.166h4v-.875h-4v.875zm4.943 3.693c-.545-3.505-6.053-3.711-6.053.872 0 4.526 5.18 3.818 5.949 1.56h-1.848c-.645.748-2.508.531-2.404-1.184h4.41c.009-.555-.009-.953-.054-1.248z"/></svg>

<?xml version="1.0" encoding="utf-8"?>
<!-- Generator: Adobe Illustrator 24.2.3, SVG Export Plug-In . SVG Version: 6.00 Build 0)  -->
<svg version="1.1" id="Layer_1" xmlns="http://www.w3.org/2000/svg" xmlns:xlink="http://www.w3.org/1999/xlink" x="0px" y="0px"
	 viewBox="0 0 24 24" style="enable-background:new 0 0 24 24;" xml:space="preserve">
<style type="text/css">
	.st0{fill:#116291;}
</style>
<path class="st0" d="M8.8,10.8h-2V9h1.8C10.5,9,10.3,10.8,8.8,10.8z M14.6,11.9h2.6C17.1,10.2,14.9,10.1,14.6,11.9z M8.7,12.3H6.9
	v1.9h1.8C10.5,14.2,10.4,12.3,8.7,12.3z M24,12c0,6.6-5.4,12-12,12S0,18.6,0,12S5.4,0,12,0S24,5.4,24,12z M10.6,11.3
	c1.7-0.9,1.6-4-1.6-4H5V16h3.8C12.7,16,12.7,12,10.6,11.3z M14,8.1h4V7.2h-4V8.1z M18.9,11.8c-0.5-3.5-6.1-3.7-6.1,0.9
	c0,4.5,5.2,3.8,5.9,1.6H17c-0.6,0.7-2.5,0.5-2.4-1.2H19C19,12.5,19,12.1,18.9,11.8z"/>
</svg>
